X: 97
T:Miller Of Drone,The. WI.097
M:C
L:1/8
Q:140
S:Wm Irwin, Folio MS, c1850. AGG's Transcription
R:Strathspey
O:England
A:Lake District
Z:vmp.Chris Partington.2005
K:A
c/B/|A<FF>A E>FE>C|A,<A, d>c {c}B2(3BcB|\
A<FF>A E>FE>C|D>FE>G A2A:|!
|(c/d/)|e>cc>a e>e f/e/d/c/|e>cc>a {g}f2(fa)|\
e>cc>a e>e f/e/d/c/|{Bc}d>B{d}c>A {G}F2F(c/d/)|!
e>cc>a e>e f/e/d/c/|e>cc>a {g}f2(fa)|\
(3agf (3efg (3aed (3cBA|{c}d>Bc>A {G}F2G|]
